images/btn_arrow.svg

<svg width="19" height="19" viewBox="0 0 19 19" fill="none" xmlns="http://www.w3.org/2000/svg">
<g opacity="0.1">
<circle cx="9.5" cy="9.5" r="9" fill="#414141" stroke="#949494"/>
<mask id="path-2-inside-1_30_1108" fill="white">
<path d="M8.069 12.9359C8.11488 12.9786 8.17511 13 8.23535 13C8.29558 13 8.35581 12.9786 8.40169 12.9359L11.931 9.65468C12.023 9.56915 12.023 9.4309 11.931 9.34537L8.40169 6.06415C8.3097 5.97862 8.161 5.97862 8.069 6.06415C7.977 6.14968 7.977 6.28793 8.069 6.37346L11.432 9.50003L8.069 12.6266C7.977 12.7121 7.977 12.8506 8.069 12.9359Z"/>
</mask>
<path d="M8.069 12.9359C8.11488 12.9786 8.17511 13 8.23535 13C8.29558 13 8.35581 12.9786 8.40169 12.9359L11.931 9.65468C12.023 9.56915 12.023 9.4309 11.931 9.34537L8.40169 6.06415C8.3097 5.97862 8.161 5.97862 8.069 6.06415C7.977 6.14968 7.977 6.28793 8.069 6.37346L11.432 9.50003L8.069 12.6266C7.977 12.7121 7.977 12.8506 8.069 12.9359Z" fill="#747474"/>
<path d="M8.069 12.9359L9.43079 11.4711L9.42892 11.4694L8.069 12.9359ZM8.40169 12.9359L7.0399 11.4711L7.0399 11.4711L8.40169 12.9359ZM11.931 9.65468L13.2928 11.1194L13.2928 11.1194L11.931 9.65468ZM11.931 9.34537L10.5692 10.8101L10.5692 10.8101L11.931 9.34537ZM8.40169 6.06415L9.76349 4.59939L9.76349 4.59939L8.40169 6.06415ZM8.069 6.37346L6.7072 7.83822L6.7072 7.83822L8.069 6.37346ZM11.432 9.50003L12.7938 10.9648L14.3693 9.50003L12.7938 8.03527L11.432 9.50003ZM8.069 12.6266L6.7072 11.1618L8.069 12.6266ZM8.069 12.9359L6.7072 14.4007C7.15104 14.8133 7.70934 15 8.23535 15V13V11C8.64088 11 9.07871 11.1438 9.43079 11.4711L8.069 12.9359ZM8.23535 13V15C8.76135 15 9.31965 14.8133 9.76349 14.4007L8.40169 12.9359L7.0399 11.4711C7.39197 11.1438 7.82981 11 8.23535 11V13ZM8.40169 12.9359L9.76349 14.4007L13.2928 11.1194L11.931 9.65468L10.5692 8.18993L7.0399 11.4711L8.40169 12.9359ZM11.931 9.65468L13.2928 11.1194C14.2357 10.2428 14.2357 8.75727 13.2928 7.88062L11.931 9.34537L10.5692 10.8101C9.81026 10.1045 9.81026 8.89552 10.5692 8.18993L11.931 9.65468ZM11.931 9.34537L13.2928 7.88062L9.76349 4.59939L8.40169 6.06415L7.0399 7.5289L10.5692 10.8101L11.931 9.34537ZM8.40169 6.06415L9.76349 4.59939C8.90388 3.8002 7.56681 3.8002 6.7072 4.59939L8.069 6.06415L9.43079 7.5289C8.75518 8.15703 7.71552 8.15703 7.0399 7.5289L8.40169 6.06415ZM8.069 6.06415L6.7072 4.59939C5.76427 5.47605 5.76427 6.96156 6.7072 7.83822L8.069 6.37346L9.43079 4.9087C10.1897 5.6143 10.1897 6.82331 9.43079 7.5289L8.069 6.06415ZM8.069 6.37346L6.7072 7.83822L10.0702 10.9648L11.432 9.50003L12.7938 8.03527L9.43079 4.9087L8.069 6.37346ZM11.432 9.50003L10.0702 8.03527L6.7072 11.1618L8.069 12.6266L9.43079 14.0914L12.7938 10.9648L11.432 9.50003ZM8.069 12.6266L6.7072 11.1618C5.76536 12.0375 5.76255 13.5247 6.70907 14.4024L8.069 12.9359L9.42892 11.4694C10.1915 12.1765 10.1886 13.3868 9.43079 14.0914L8.069 12.6266Z" fill="#B8B8B8" mask="url(#path-2-inside-1_30_1108)"/>
</g>
</svg>

<svg width="19" height="19" fill="none" xmlns="http://www.w3.org/2000/svg"><g opacity=".1"><circle cx="9.5" cy="9.5" r="9" fill="#414141" stroke="#949494"/><mask id="a" fill="#fff"><path d="M8.069 12.936a.244.244 0 0 0 .166.064c.06 0 .12-.021.167-.064l3.529-3.281a.208.208 0 0 0 0-.31l-3.53-3.28a.248.248 0 0 0-.332 0 .208.208 0 0 0 0 .308L11.432 9.5l-3.363 3.127a.208.208 0 0 0 0 .309z"/></mask><path d="M8.069 12.936a.244.244 0 0 0 .166.064c.06 0 .12-.021.167-.064l3.529-3.281a.208.208 0 0 0 0-.31l-3.53-3.28a.248.248 0 0 0-.332 0 .208.208 0 0 0 0 .308L11.432 9.5l-3.363 3.127a.208.208 0 0 0 0 .309z" fill="#747474"/><path d="m8.069 12.936 1.362-1.465-.002-.002-1.36 1.467zm.333 0L7.04 11.47l1.362 1.465zm3.529-3.281 1.362 1.464-1.362-1.464zm0-.31-1.362 1.465 1.362-1.465zm-3.53-3.28 1.362-1.466-1.361 1.465zm-.332.308L6.707 7.838 8.07 6.373zM11.432 9.5l1.362 1.465L14.369 9.5l-1.575-1.465L11.432 9.5zm-3.363 3.127-1.362-1.465 1.362 1.465zm0 .309L6.707 14.4c.444.412 1.002.599 1.528.599v-4c.406 0 .844.144 1.196.471l-1.362 1.465zm.166.064v2c.526 0 1.085-.187 1.528-.6l-1.361-1.464L7.04 11.47c.352-.327.79-.471 1.195-.471v2zm.167-.064L9.763 14.4l3.53-3.282-1.362-1.464-1.362-1.465-3.53 3.281 1.363 1.465zm3.529-3.281 1.362 1.464a2.208 2.208 0 0 0 0-3.238L11.93 9.345l-1.362 1.465a1.792 1.792 0 0 1 0-2.62l1.362 1.465zm0-.31 1.362-1.464-3.53-3.282-1.361 1.465L7.04 7.53l3.53 3.281 1.361-1.465zm-3.53-3.28 1.362-1.466c-.86-.799-2.196-.799-3.056 0L8.07 6.064 9.431 7.53a1.752 1.752 0 0 1-2.391 0l1.362-1.465zm-.332 0L6.707 4.598a2.208 2.208 0 0 0 0 3.24L8.07 6.372 9.431 4.91a1.792 1.792 0 0 1 0 2.62L8.069 6.064zm0 .308L6.707 7.838l3.363 3.127L11.432 9.5l1.362-1.465L9.43 4.91 8.069 6.373zM11.432 9.5 10.07 8.035l-3.363 3.127 1.362 1.465 1.362 1.464 3.363-3.126L11.432 9.5zm-3.363 3.127-1.362-1.465a2.208 2.208 0 0 0 .002 3.24l1.36-1.466 1.36-1.467c.762.708.76 1.918.002 2.622l-1.362-1.464z" fill="#B8B8B8" mask="url(#a)"/></g></svg>
